X:1
T:Welcome, One and All
T:B. C. Ward
T:Welcome, One and All
T:Public Domain
T:Public Domain
C:B. C. Ward
Z:Public Domain
%%score ( 1 2 ) ( 3 4 )
L:1/8
M:4/4
K:A
V:1 treble 
V:2 treble 
V:3 bass 
V:4 bass 
V:1
 [A,C]>[B,D] | [CE]2 [CE]>[DF] [CE]2 [EA]>[EB] | [Ec]2 [Ec]2 [Ec]2 [EB]>[Ec] | %3
w: 1.~We are|ga- thered to- day in our|Sun- day school, With our|
w: 2.~We would|go forth with zeal in our|Mas- ter’s name, And would|
w: 3.~One and|all with a will let us|work to- day, To re-|
 [Fd]2 [Ec]>[EB] [EA]2 (G>A) | (c2 B4) [A,C]>[B,D] | [CE]2 [CE]>[DF] [CE]2 [EA]>[EB] | %6
w: hearts full of grate- ful *|We * re- joice,|re- joice, as we hi- ther|
w: bring ma- ny wan- d’rers *|We * would tell|of Christ, who from glo- ry|
w: store to the Lord His *|Lead- * ing souls|the bright and the shin- ing|
 [Ec]2 [Ec]2 [Ec]2 [EB]>[Ec] | [Fd]2 [DF]>[FB] [EA]2 [EG]2 | [EA]6 ||"^Refrain" [EG]>[EA] | %10
w: come, That the Lord doth|di- rect our ways. *|||
w: came, E’en to save them|from death and sin. We|would|join in|
w: way, Serv- ing Je- sus,|and Him a- lone. *|||
 [EB]2 E>E E2 (A>B) | [Ec]4 [CA]2 [Ec]>[Ec] | [EB]2 [EG]2 [FA]2 [^DF]2 | E4- E2 [A,C]>[G,D] |] %14
w: ||||
w: the song of wel- come: *|all to- day! Let|us * * *||
w: ||||
V:2
 x2 | x8 | x8 | x6 E2 | E6 x2 | x8 | x8 | x8 | x6 || x2 | x2 E>E E2 E2 | x8 | x8 | E4- E2 x2 |] %14
w: |||praise;|we||||||||||
w: |||in;|them||||||Wel- come one and||||
w: |||own;|to||||||||||
V:3
 [A,,E,]>[A,,E,] | [A,,A,]2 [A,,A,]>[A,,A,] [A,,A,]2 [C,A,]>[E,G,] | A,2 A,2 A,2 [E,G,]>A, | %3
w: ~ ~|~ ~ ~ ~ ~ ~|~ ~ ~ ~ ~|
 [D,A,]2 [A,,A,]>[B,,G,] [C,A,]2 ([B,,B,]>[A,,C]) | (A,2 G,4) [A,,A,]>[A,,E,] | %5
w: ~ ~ ~ ~ strive *|with * our might|
 [A,,A,]2 [A,,A,]>[A,,A,] [A,,A,]2 [C,A,]>[E,G,] | A,2 A,2 A,2 [E,G,]>A, | %7
w: to do the right, And to|seek for the lambs a-|
 [D,A,]2 [D,A,]>[D,D] [E,C]2 [E,B,]2 | [A,,C]6 || [E,B,]>[E,C] | %10
w: |||
 [E,G,]2 [E,G,]>[E,G,] (E,D,) ([C,A,]>[B,,G,]) | [A,,A,]4 [A,,E,]2 [A,,A,]>[A,,A,] | %12
w: ||
 [B,,G,]2 [B,,B,]2 [B,,B,]2 [B,,A,]2 | (E,2 E,2 E,D,) [C,E,]>[B,,E,] |] %14
w: ||
V:4
 x2 | x8 | A,2 A,2 A,2 A,/ x3/2 | x8 | E,6 x2 | x8 | A,2 A,2 A,2 A,/ x3/2 | x8 | x6 || x2 | %10
w: ||~ ~ ~ ~||e’er||stray. * * *||||
 x4 G,2 x2 | x8 | x8 | G,4- G,2 x2 |] %14
w: ||||

